contributed-vectors/perfect_piano.svg

<svg xmlns="http://www.w3.org/2000/svg" width="192" height="192" fill="none"><g clip-path="url(#a)"><path fill="#56595B" fill-rule="evenodd" d="M184 42v107c0 5.52-4.5 10-10.06 10H18.06C12.5 159 8 154.52 8 149V42c0-5.52 4.5-10 10.06-10h155.89C179.5 32 184 36.48 184 42Z" clip-rule="evenodd"/><path fill="#fff" d="M38.13 148.97c0 .03-.01.03-.01.03H17.99V42.03c0-.03.01-.03.01-.03h20.13v106.97ZM60.78 148.97c0 .03-.01.03-.01.03H40.63V42.03c0-.03.01-.03.01-.03h20.13l.01 106.97ZM83.42 148.97c0 .03-.01.03-.01.03H63.28V42.03c0-.03.01-.03.01-.03h20.13v106.97ZM106.07 148.97c0 .03-.01.03-.01.03H85.93V42.03c0-.03.01-.03.01-.03h20.13v106.97ZM128.71 148.97c0 .03-.01.03-.01.03h-20.13V42.03c0-.03.01-.03.01-.03h20.13v106.97ZM151.36 148.97c0 .03-.01.03-.01.03h-20.13V42.03c0-.03.01-.03.01-.03h20.13v106.97ZM174.01 148.97c0 .03-.01.03-.01.03h-20.13V42.03c0-.03.01-.03.01-.03h20.13v106.97Z"/><path fill="#56595B" d="M160.17 108.86c0 .02 0 .02-.01.02h-15.1V42.02c0-.02 0-.02.01-.02h15.1v66.86ZM137.52 108.86c0 .02 0 .02-.01.02h-15.1V42.02c0-.02 0-.02.01-.02h15.1v66.86ZM114.87 108.86c0 .02 0 .02-.01.02h-15.1V42.02c0-.02 0-.02.01-.02h15.1v66.86ZM69.58 108.86c0 .02 0 .02-.01.02h-15.1V42.02c0-.02 0-.02.01-.02h15.1v66.86ZM46.92 108.86c0 .02 0 .02-.01.02h-15.1V42.02c0-.02 0-.02.01-.02h15.1v66.86Z"/></g><defs><clipPath id="a"><path fill="#fff" d="M0 0h192v192H0z"/></clipPath></defs></svg>

<svg width="192" height="192" viewBox="0 0 192 192" fill="none" xmlns="http://www.w3.org/2000/svg">
<g clip-path="url(#clip0)">
<path fill-rule="evenodd" clip-rule="evenodd" d="M184 42V149C184 154.52 179.5 159 173.94 159H18.06C12.5 159 8 154.52 8 149V42C8 36.48 12.5 32 18.06 32H173.95C179.5 32 184 36.48 184 42Z" fill="#56595B"/>
<path d="M38.13 148.97C38.13 149 38.12 149 38.12 149H17.99V42.03C17.99 42 18 42 18 42H38.13V148.97Z" fill="white"/>
<path d="M60.7799 148.97C60.7799 149 60.7699 149 60.7699 149H40.6299V42.03C40.6299 42 40.6399 42 40.6399 42H60.7699L60.7799 148.97Z" fill="white"/>
<path d="M83.42 148.97C83.42 149 83.41 149 83.41 149H63.28V42.03C63.28 42 63.29 42 63.29 42H83.42V148.97Z" fill="white"/>
<path d="M106.07 148.97C106.07 149 106.06 149 106.06 149H85.9299V42.03C85.9299 42 85.9399 42 85.9399 42H106.07V148.97Z" fill="white"/>
<path d="M128.71 148.97C128.71 149 128.7 149 128.7 149H108.57V42.03C108.57 42 108.58 42 108.58 42H128.71V148.97Z" fill="white"/>
<path d="M151.36 148.97C151.36 149 151.35 149 151.35 149H131.22V42.03C131.22 42 131.23 42 131.23 42H151.36V148.97Z" fill="white"/>
<path d="M174.01 148.97C174.01 149 174 149 174 149H153.87V42.03C153.87 42 153.88 42 153.88 42H174.01V148.97Z" fill="white"/>
<path d="M160.17 108.86C160.17 108.88 160.17 108.88 160.16 108.88H145.06V42.02C145.06 42 145.06 42 145.07 42H160.17V108.86Z" fill="#56595B"/>
<path d="M137.52 108.86C137.52 108.88 137.52 108.88 137.51 108.88H122.41V42.02C122.41 42 122.41 42 122.42 42H137.52V108.86Z" fill="#56595B"/>
<path d="M114.87 108.86C114.87 108.88 114.87 108.88 114.86 108.88H99.76V42.02C99.76 42 99.76 42 99.77 42H114.87V108.86Z" fill="#56595B"/>
<path d="M69.58 108.86C69.58 108.88 69.58 108.88 69.57 108.88H54.47V42.02C54.47 42 54.47 42 54.48 42H69.58V108.86Z" fill="#56595B"/>
<path d="M46.9201 108.86C46.9201 108.88 46.9201 108.88 46.9101 108.88H31.8101V42.02C31.8101 42 31.8101 42 31.8201 42H46.9201V108.86Z" fill="#56595B"/>
</g>
<defs>
<clipPath id="clip0">
<rect width="192" height="192" fill="white"/>
</clipPath>
</defs>
</svg>
